src/assets/icons/category_Videogames.svg

<?xml version="1.0" encoding="UTF-8" standalone="no"?>
<svg width="38px" height="38px" viewBox="0 0 38 38" version="1.1" xmlns="http://www.w3.org/2000/svg" xmlns:xlink="http://www.w3.org/1999/xlink">
    <!-- Generator: sketchtool 41.2 (35397) - http://www.bohemiancoding.com/sketch -->
    <title>ED02A625-9942-4895-9455-2CDB13F83403</title>
    <desc>Created with sketchtool.</desc>
    <defs></defs>
    <g id="Nav" stroke="none" stroke-width="1" fill="none" fill-rule="evenodd">
        <g id="Categories_Selected_Mobile-" transform="translate(-80.000000, -391.000000)" fill="#AEAEAE">
            <path d="M105.310333,419.511292 C104.580417,420.071792 103.668417,419.67675 102.241833,418.989583 C101.775542,418.76475 101.279958,418.529625 100.763,418.333292 C100.713125,418.288958 100.667208,418.240667 100.604667,418.209 L97.438,416.625667 C97.0453333,416.429333 96.5703333,416.58925 96.3755833,416.979542 C96.1800417,417.370625 96.338375,417.846417 96.7294583,418.041958 L97.0073333,418.1805 C96.3304583,418.397417 95.6884167,418.702208 95.0922917,418.989583 C93.6649167,419.677542 92.7537083,420.070208 92.0237917,419.511292 C89.36775,417.4775 87.5833333,413.543708 87.5833333,409.723125 C87.5833333,402.984458 93.3086667,400.583333 98.6666667,400.583333 C104.024667,400.583333 109.75,402.984458 109.75,409.723125 C109.75,413.543708 107.965583,417.4775 105.310333,419.511292 M98.6666667,399 C90.9724583,399 86,403.209292 86,409.723125 C86,414.011583 88.0337917,418.450458 91.061125,420.768458 C91.6247917,421.200708 92.20825,421.365375 92.794875,421.365375 C93.8105833,421.364583 94.835,420.871375 95.7794583,420.416167 C96.737375,419.954625 97.72775,419.47725 98.6666667,419.47725 C99.606375,419.47725 100.59675,419.954625 101.554667,420.416167 C103.044583,421.134208 104.733208,421.948042 106.273,420.768458 C109.300333,418.449667 111.333333,414.010792 111.333333,409.723125 C111.333333,403.209292 106.361667,399 98.6666667,399 Z M94.70865,408.625479 L93.9169833,408.625479 L93.9169833,407.833813 C93.9169833,407.396813 93.5623167,407.042146 93.1253167,407.042146 C92.6883167,407.042146 92.33365,407.396813 92.33365,407.833813 L92.33365,408.625479 L91.5419833,408.625479 C91.1049833,408.625479 90.7503167,408.980146 90.7503167,409.417146 C90.7503167,409.854146 91.1049833,410.208813 91.5419833,410.208813 L92.33365,410.208813 L92.33365,411.000479 C92.33365,411.437479 92.6883167,411.792146 93.1253167,411.792146 C93.5623167,411.792146 93.9169833,411.437479 93.9169833,411.000479 L93.9169833,410.208813 L94.70865,410.208813 C95.14565,410.208813 95.5003167,409.854146 95.5003167,409.417146 C95.5003167,408.980146 95.14565,408.625479 94.70865,408.625479 Z M102.8549,411.230063 C102.7124,411.380479 102.625317,411.586313 102.625317,411.792146 C102.625317,411.997979 102.7124,412.203813 102.8549,412.354229 C103.005317,412.496729 103.21115,412.583813 103.416983,412.583813 C103.622817,412.583813 103.82865,412.496729 103.979067,412.354229 C104.121567,412.203813 104.20865,411.997979 104.20865,411.792146 C104.20865,411.586313 104.121567,411.380479 103.979067,411.230063 C103.68615,410.937146 103.147817,410.937146 102.8549,411.230063 Z M100.4799,408.855063 C100.3374,409.005479 100.250317,409.211313 100.250317,409.417146 C100.250317,409.630896 100.3374,409.828813 100.4799,409.979229 C100.630317,410.121729 100.83615,410.208813 101.041983,410.208813 C101.255733,410.208813 101.45365,410.121729 101.604067,409.979229 C101.746567,409.828813 101.83365,409.630896 101.83365,409.417146 C101.83365,409.211313 101.746567,409.005479 101.604067,408.855063 C101.31115,408.562146 100.772817,408.562146 100.4799,408.855063 Z M105.2299,408.855063 C105.0874,409.005479 105.000317,409.211313 105.000317,409.417146 C105.000317,409.630896 105.0874,409.828813 105.2299,409.979229 C105.380317,410.121729 105.58615,410.208813 105.791983,410.208813 C105.997817,410.208813 106.20365,410.121729 106.354067,409.979229 C106.496567,409.828813 106.58365,409.630896 106.58365,409.417146 C106.58365,409.211313 106.496567,409.005479 106.354067,408.855063 C106.06115,408.562146 105.522817,408.562146 105.2299,408.855063 Z M102.8549,406.480063 C102.7124,406.630479 102.625317,406.836313 102.625317,407.042146 C102.625317,407.247979 102.7124,407.453813 102.8549,407.604229 C103.005317,407.746729 103.21115,407.833813 103.416983,407.833813 C103.622817,407.833813 103.82865,407.746729 103.979067,407.604229 C104.121567,407.453813 104.20865,407.247979 104.20865,407.042146 C104.20865,406.836313 104.121567,406.630479 103.979067,406.480063 C103.68615,406.187146 103.155733,406.187146 102.8549,406.480063 Z" id="Combined-Shape"></path>
        </g>
    </g>
</svg>

<svg width="38" height="38" viewBox="0 0 38 38" xmlns="http://www.w3.org/2000/svg"><g id="Nav" fill="none" fill-rule="evenodd"><g id="Categories_Selected_Mobile-" transform="translate(-80 -391)" fill="#AEAEAE"><path d="M105.31 419.511c-.73.56-1.642.166-3.068-.521-.466-.225-.962-.46-1.479-.657-.05-.044-.096-.092-.158-.124l-3.167-1.583a.791.791 0 1 0-.709 1.416l.278.139c-.677.216-1.319.521-1.915.809-1.427.688-2.338 1.08-3.068.521-2.656-2.034-4.44-5.967-4.44-9.788 0-6.739 5.725-9.14 11.083-9.14 5.358 0 11.083 2.401 11.083 9.14 0 3.82-1.784 7.755-4.44 9.788M98.667 399C90.972 399 86 403.21 86 409.723c0 4.289 2.034 8.727 5.061 11.045a2.765 2.765 0 0 0 1.734.597c1.016 0 2.04-.494 2.984-.949.958-.461 1.949-.939 2.888-.939.94 0 1.93.478 2.888.94 1.49.717 3.178 1.531 4.718.351 3.027-2.318 5.06-6.757 5.06-11.045 0-6.514-4.971-10.723-12.666-10.723zm-3.958 9.625h-.792v-.791a.792.792 0 0 0-1.583 0v.791h-.792a.792.792 0 0 0 0 1.584h.792V411a.792.792 0 0 0 1.583 0v-.791h.792a.792.792 0 0 0 0-1.584zm8.146 2.605a.832.832 0 0 0-.23.562c0 .206.087.412.23.562.15.143.356.23.562.23a.832.832 0 0 0 .562-.23.832.832 0 0 0 .23-.562.832.832 0 0 0-.23-.562c-.293-.293-.831-.293-1.124 0zm-2.375-2.375a.832.832 0 0 0-.23.562c0 .214.087.412.23.562.15.143.356.23.562.23a.818.818 0 0 0 .562-.23.818.818 0 0 0 .23-.562.832.832 0 0 0-.23-.562c-.293-.293-.831-.293-1.124 0zm4.75 0a.832.832 0 0 0-.23.562c0 .214.087.412.23.562.15.143.356.23.562.23a.832.832 0 0 0 .562-.23.818.818 0 0 0 .23-.562.832.832 0 0 0-.23-.562c-.293-.293-.831-.293-1.124 0zm-2.375-2.375a.832.832 0 0 0-.23.562c0 .206.087.412.23.562.15.143.356.23.562.23a.832.832 0 0 0 .562-.23.832.832 0 0 0 .23-.562.832.832 0 0 0-.23-.562c-.293-.293-.823-.293-1.124 0z" id="Combined-Shape"/></g></g></svg>
